!!!SOCIAL_FUNCTION:	additional Mide Songs
!!!PDT:	1909
!!!OTL: No_93_I_Am_Walking.krn
!!!REG: Great_Lakes
!!!LANG: Non-Tone
!!!LING_GROUP: Algonquin
**kern	**kern
*staff2	*staff1
=1-	=1-
*clefF4	*clefF4
*k[b-e-a-d-g-c-]	*k[b-e-a-d-g-c-]
*M2/4	*M2/4
8GG-/L	4e-\
8GG-/J	.
8GG-/L	8e-\L
8GG-/J	8c-\J
=2	=2
8GG-/L	8.B-\L
8GG-/J	.
.	16c-\Jk
8GG-/L	8c-\L
8GG-/J	8B-\J
=3||	=3||
*M3/4	*M3/4
2.r	8.B--\L
.	16B--\Jk
.	8..B--\L
.	32c-\Jkk
.	8c-\L
.	8B-\J
=4||	=4||
*M2/4	*M2/4
2r	8.B-\L
.	16B-\Jk
.	8B-\L
.	8A-\J
=5	=5
2r	8.G-\L
.	16A-\Jk
.	4A-\
=6	=6
2r	16B-\LL
.	16B-\
.	16B-\
.	16B-\JJ
.	16B-\LL
.	(64B-\LK
.	32.A-\J)
.	16G-\
.	16G-\JJ
=7||	=7||
*M3/4	*M3/4
2.r	8.E-\L
.	16E-\Jk
.	4E-\
.	12G-\L
.	12G-\
.	12G-\J
=8||	=8||
*M2/4	*M2/4
2r	8.E-\L
.	16E-\Jk
.	8D-\L
.	8D-\J
=9||	=9||
*M3/4	*M3/4
2.r	8.BB-/L
.	16BB-/Jk
.	4BB-/
.	12D-\L
.	12D-\
.	12D-\J
=10||	=10||
*M2/4	*M2/4
2r	8.BB-/L
.	16BB-/Jk
.	8BB-/L
.	8BB-/J
=11||	=11||
*M3/4	*M3/4
2.r	4.BB-/
.	8BB-/
.	4BB-/
==	==
*-	*-
